X:1805
T:Vals Akabat, förenklad version
R:Vals
C: Anton Teljebäck


Z:Anton Teljebäck
M:3/4
L:1/8
K:A
|:cc |c2 c(c c)c | (cB) Az cc | c2 c(c c)c | (cB) Az cc |c2 c(c c)c | (cB) Az cc | B2 E(F F)G | Az A2 :|
|: Ez E2z2 | A2 B2 c2 | d2 c2 B2 | Az E2z2 | F2 F(F F)F | Ez E2z2 | Ez E2z2 | A2 B2 c2 | d2 c2 B2 | Az E2z2 | B2 B(B B)B | Az A2z2:|
(:musicend:)



(:music:)
